svg/filled/hidden.svg

<svg width="24" height="24" viewBox="0 0 24 24" fill="none" xmlns="http://www.w3.org/2000/svg">
<path d="M14.3307 7.16929C13.5873 7.05887 12.806 7 12 7C7.02944 7 3 9.23858 3 12C3 13.4401 4.09589 14.738 5.84963 15.6504L8.21192 13.2881C8.07452 12.8839 8 12.4506 8 12C8 9.79086 9.79086 8 12 8C12.4506 8 12.8839 8.07452 13.2881 8.21192L14.3307 7.16929Z" fill="black"/>
<path d="M11.2308 15.9261C11.4797 15.9746 11.7369 16 12 16C14.2091 16 16 14.2091 16 12C16 11.7369 15.9746 11.4797 15.9261 11.2308L18.5726 8.58427C20.0782 9.47809 21 10.6792 21 12C21 14.7614 16.9706 17 12 17C11.4016 17 10.8169 16.9676 10.2512 16.9057L11.2308 15.9261Z" fill="black"/>
<path d="M17.7929 5.20711C18.1834 4.81658 18.8166 4.81658 19.2071 5.20711C19.5976 5.59763 19.5976 6.2308 19.2071 6.62132L6.47919 19.3492C6.08866 19.7398 5.4555 19.7398 5.06497 19.3492C4.67445 18.9587 4.67445 18.3256 5.06497 17.935L17.7929 5.20711Z" fill="black"/>
</svg>

<svg xmlns="http://www.w3.org/2000/svg" viewBox="0 0 24 24" fill="currentColor">
  <path d="M14.33 7.17C13.588 7.058 12.807 7 12 7c-4.97 0-9 2.239-9 5 0 1.44 1.096 2.738 2.85 3.65l2.362-2.362a4 4 0 015.076-5.076l1.043-1.043zM11.23 15.926a4 4 0 004.695-4.695l2.648-2.647C20.078 9.478 21 10.68 21 12c0 2.761-4.03 5-9 5-.598 0-1.183-.032-1.749-.094l.98-.98zM17.793 5.207a1 1 0 111.414 1.414L6.48 19.35a1 1 0 11-1.414-1.414L17.793 5.207z"/>
</svg>
